packages/kaspersky-hexa-ui-icons/src/iconsSVGs/16/RadioButton.svg

<svg width="16" height="16" viewBox="0 0 16 16" fill="none" xmlns="http://www.w3.org/2000/svg">
<path fill-rule="evenodd" clip-rule="evenodd" d="M8.0001 4.63301C6.14051 4.63301 4.63301 6.14051 4.63301 8.0001C4.63301 9.85969 6.14051 11.3672 8.0001 11.3672C9.85969 11.3672 11.3672 9.85969 11.3672 8.0001C11.3672 6.14051 9.85969 4.63301 8.0001 4.63301ZM3.33301 8.0001C3.33301 5.42254 5.42254 3.33301 8.0001 3.33301C10.5777 3.33301 12.6672 5.42254 12.6672 8.0001C12.6672 10.5777 10.5777 12.6672 8.0001 12.6672C5.42254 12.6672 3.33301 10.5777 3.33301 8.0001Z" fill="black"/>
</svg>

<svg xmlns="http://www.w3.org/2000/svg" width="16" height="16" fill="none" viewBox="0 0 16 16"><path fill="#000" fill-rule="evenodd" d="M8 4.6329c-1.8596 0-3.3671 1.5075-3.3671 3.367 0 1.8597 1.5075 3.3672 3.367 3.3672 1.8597 0 3.3672-1.5075 3.3672-3.3671S9.8596 4.6329 8 4.6329m-4.6671 3.367c0-2.5775 2.0895-4.667 4.667-4.667 2.5776 0 4.6672 2.0895 4.6672 4.667 0 2.5776-2.0896 4.6672-4.6671 4.6672-2.5776 0-4.6671-2.0896-4.6671-4.6671"/></svg>
